src/topics/icons/google-ads.svg

<svg height="230" preserveAspectRatio="xMidYMid" viewBox="0 0 256 230" width="256" xmlns="http://www.w3.org/2000/svg"><path d="m5.888 166.405103 84.992-145.505103c10.796138 6.3558621 65.235862 36.4844138 74.028138 42.2135172l-84.9920001 145.5139308c-9.2954482 12.279173-85.8041379-23.58731-74.0281379-42.231172z" fill="#fbbc04"/><path d="m250.084224 166.401789-84.992-145.4962759c-11.881931-19.7737931-37.473103-26.95944827-58.491586-15.28055172-21.018483 11.67889652-27.418483 36.83751722-15.5365519 57.49406892l84.9919999 145.5139307c11.881931 19.764966 37.473104 26.950621 58.491586 15.271725 20.100414-11.678897 27.418483-37.729104 15.536552-57.485242z" fill="#4285f4"/><ellipse cx="42.663724" cy="187.924414" fill="#34a853" rx="42.663724" ry="41.604414"/></svg>

<?xml version="1.0" encoding="UTF-8"?>
<svg width="256px" height="230px" viewBox="0 0 256 230" version="1.1" xmlns="http://www.w3.org/2000/svg" xmlns:xlink="http://www.w3.org/1999/xlink" preserveAspectRatio="xMidYMid">
    <g>
				<path d="M5.888,166.405103 L90.88,20.9 C101.676138,27.2558621 156.115862,57.3844138 164.908138,63.1135172 L79.9161379,208.627448 C70.6206897,220.906621 -5.888,185.040138 5.888,166.396276 L5.888,166.405103 Z" fill="#FBBC04"></path>
				<path d="M250.084224,166.401789 L165.092224,20.9055131 C153.210293,1.13172 127.619121,-6.05393517 106.600638,5.62496138 C85.582155,17.3038579 79.182155,42.4624786 91.0640861,63.1190303 L176.056086,208.632961 C187.938017,228.397927 213.52919,235.583582 234.547672,223.904686 C254.648086,212.225789 261.966155,186.175582 250.084224,166.419444 L250.084224,166.401789 Z" fill="#4285F4"></path>
				<ellipse fill="#34A853" cx="42.6637241" cy="187.924414" rx="42.6637241" ry="41.6044138"></ellipse>
    </g>
</svg>
